icons/1_Primary/FreeTaxUSA.svg

<svg width="1024" height="1024" viewBox="0 0 1024 1024" fill="none" xmlns="http://www.w3.org/2000/svg">
<g clip-path="url(#clip0_2_2232)">
<path d="M512 1024C794.77 1024 1024 794.77 1024 512C1024 229.23 794.77 0 512 0C229.23 0 0 229.23 0 512C0 794.77 229.23 1024 512 1024Z" fill="#BA6561"/>
<path d="M644.57 396.14C656.204 396.14 664.77 399.14 670.27 405.14C675.77 411.14 678.52 420.547 678.52 433.36V498.22H655.78V487.28C653.094 491.386 649.489 494.81 645.25 497.28C641.182 499.61 636.569 500.821 631.88 500.79C623.787 500.79 617.454 498.2 612.88 493.02C608.32 487.84 606.11 480.45 606.11 471.22C606.11 461.22 609.444 453.35 616.11 447.61C622.777 441.87 632.29 438.487 644.65 437.46L654.9 436.7V430.83C654.9 424.897 654.014 420.54 652.24 417.76C650.46 414.98 647.63 413.58 643.71 413.58C640.17 413.58 637.454 414.654 635.56 416.8C633.67 418.95 632.34 422.36 631.56 427.05L609.18 425.15C610.7 415.284 614.347 407.98 620.12 403.24C625.88 398.49 634.12 396.13 644.6 396.13L644.57 396.14ZM654.82 452.46L647.24 453.22C641.55 453.73 637.15 455.37 633.99 458.15C630.83 460.93 629.34 464.66 629.34 469.34C629.34 473.51 630.22 476.71 632.01 478.91C633.8 481.11 636.36 482.23 639.78 482.23C641.902 482.288 644.006 481.825 645.908 480.882C647.81 479.939 649.452 478.544 650.69 476.82C653.41 473.214 654.77 468.314 654.77 462.12V452.45L654.82 452.46ZM509.36 396.14C521.247 396.14 530.194 400.247 536.2 408.46C542.207 416.674 545.207 428.81 545.2 444.87V454.54H494.37C494.62 473.76 499.55 483.36 508.97 483.36C512.77 483.36 515.6 482.2 517.5 479.86C519.4 477.52 520.66 473.57 521.3 468H544.82C543.8 478.874 540.23 487.124 534.11 492.75C527.99 498.377 519.487 501.19 508.6 501.19C495.46 501.19 485.727 496.967 479.4 488.52C473.08 480.05 469.92 467.12 469.92 449.52C469.92 431.92 473.26 418.8 479.92 409.7C486.58 400.6 496.44 396.11 509.33 396.11L509.36 396.14ZM508.59 413.59C506.519 413.503 504.468 414.025 502.691 415.091C500.914 416.158 499.488 417.722 498.59 419.59C496.45 423.59 495.117 430.197 494.59 439.41H521.52C521.52 430.424 520.477 423.897 518.39 419.83C516.29 415.77 513.05 413.67 508.62 413.67L508.59 413.59ZM426.3 396.14C438.187 396.14 447.134 400.247 453.14 408.46C459.147 416.674 462.147 428.81 462.14 444.87V454.54H411.31C411.56 473.76 416.49 483.36 425.91 483.36C429.71 483.36 432.54 482.2 434.44 479.86C436.34 477.52 437.61 473.57 438.24 468H461.76C460.74 478.874 457.17 487.124 451.05 492.75C444.93 498.377 436.427 501.19 425.54 501.19C412.4 501.19 402.667 496.967 396.34 488.52C390.02 480.05 386.86 467.12 386.86 449.52C386.86 431.92 390.2 418.8 396.86 409.7C403.52 400.6 413.37 396.05 426.26 396.05L426.3 396.14ZM425.53 413.59C423.459 413.503 421.408 414.025 419.631 415.091C417.854 416.158 416.428 417.722 415.53 419.59C413.39 423.59 412.057 430.197 411.53 439.41H438.46C438.46 430.424 437.417 423.897 435.33 419.83C433.23 415.77 429.99 413.67 425.56 413.67L425.53 413.59ZM256 362.91V498.32H282.75V443.32H324.75V419.42H282.75V386.8H327.88V362.91H256ZM334.9 498.11V399.06H359.17V412.34C361.428 407.956 364.673 404.156 368.65 401.24C371.988 398.769 376.017 397.408 380.17 397.35C382.476 397.401 384.767 397.737 386.99 398.35L384.15 421.11C381.725 420.548 379.239 420.293 376.75 420.35C374.5 420.304 372.266 420.737 370.197 421.622C368.128 422.506 366.271 423.822 364.75 425.48C361.522 428.908 359.782 433.474 359.91 438.18V498.11H334.91H334.9ZM564.18 498.11V386.6H533.45V362.7H621.65V386.6H590.91V498.12L564.18 498.11ZM741.51 498.11L725.2 465.49L709.65 498.11H685L712.87 447.85L686.7 399.11H713.19L727.41 429.11L742.01 399.11H766.67L739.74 446.53L768 498.11H741.51ZM517.33 522.47H485.9L448.35 657.88H474.52L481.91 627.16H519.84L526.84 657.88H553.91L517.33 522.47ZM487 605.11L501 546.11L514.65 605.11H487ZM320.66 522.47H347.4V609.33C347.4 626.144 343.484 639.01 335.65 647.93C327.817 656.85 316.484 661.307 301.65 661.3C286.857 661.3 275.524 656.844 267.65 647.93C259.777 639.017 255.894 626.15 256 609.33V522.47H282.74V611.23C282.74 620.083 284.29 626.657 287.39 630.95C290.48 635.23 295.26 637.4 301.71 637.4C308.16 637.4 312.92 635.25 316 631C319.08 626.75 320.65 620.13 320.65 611.28V522.47H320.66ZM390.45 598.14C379.71 594.987 371.81 590.214 366.75 583.82C361.69 577.427 359.16 569.05 359.16 558.69C359.16 546.69 363.08 537.084 370.92 529.87C378.76 522.657 389.12 519.054 402 519.06C414.267 519.06 423.814 522.157 430.64 528.35C437.467 534.543 441.77 544.094 443.55 557L418.13 560.42C416.864 553.333 414.97 548.304 412.45 545.33C409.93 542.357 406.2 540.87 401.26 540.87C396.334 540.87 392.537 542.29 389.87 545.13C387.21 547.97 385.87 552.13 385.87 557.8C385.87 562.467 386.87 566.104 388.87 568.71C390.87 571.317 394.35 573.37 399.31 574.87L413.72 579.48C421.427 581.887 427.62 584.887 432.3 588.48C436.812 591.904 440.347 596.452 442.55 601.67C444.72 606.85 445.77 613.06 445.77 620.26C445.77 632.927 441.883 642.947 434.11 650.32C426.34 657.71 415.8 661.32 402.4 661.32C374.2 661.32 359.21 646.65 357.25 617.32H383.81C384.39 625.04 386.24 630.66 389.21 634.19C392.18 637.72 396.7 639.5 402.77 639.5C407.95 639.5 411.97 637.95 414.86 634.85C417.75 631.75 419.12 627.29 419.12 621.48C419.12 616.3 417.95 612.19 415.66 609.16C413.37 606.13 409.66 603.86 404.57 602.34L390.57 598.17L390.45 598.14ZM567.45 602.57H768.03V578H560.43L567.45 602.57ZM551.79 547.82H768V523.23H544.78L551.79 547.82ZM576.57 634.7L583.57 659.29H768V634.7H576.57Z" fill="white"/>
</g>
<defs>
<clipPath id="clip0_2_2232">
<rect width="1024" height="1024" fill="white"/>
</clipPath>
</defs>
</svg>

<svg xmlns="http://www.w3.org/2000/svg" viewBox="0 0 1024 1024">
   <circle cx="512" cy="512" r="512" style="fill:#bf2032"/>
   <path d="M644.57 396.14q17.45 0 25.7 9t8.25 28.22v64.86h-22.74v-10.94a31.59 31.59 0 0 1-10.53 10 26.55 26.55 0 0 1-13.37 3.51q-12.14 0-19-7.77c-4.56-5.18-6.77-12.57-6.77-21.8q0-15 10-23.61t28.54-10.15l10.25-.76v-5.87q0-8.9-2.66-13.07c-1.78-2.78-4.61-4.18-8.53-4.18q-5.31 0-8.15 3.22c-1.89 2.15-3.22 5.56-4 10.25l-22.38-1.9q2.28-14.8 10.94-21.91c5.76-4.75 14-7.11 24.48-7.11zm10.25 56.32-7.58.76c-5.69.51-10.09 2.15-13.25 4.93s-4.65 6.51-4.65 11.19c0 4.17.88 7.37 2.67 9.57s4.35 3.32 7.77 3.32a13 13 0 0 0 10.91-5.41q4.08-5.41 4.08-14.7v-9.67zm-145.46-56.32q17.83 0 26.84 12.32t9 36.41v9.67h-50.83c.25 19.22 5.18 28.82 14.6 28.82 3.8 0 6.63-1.16 8.53-3.5s3.16-6.29 3.8-11.86h23.52q-1.53 16.31-10.71 24.75t-25.51 8.44q-19.71 0-29.2-12.67c-6.32-8.47-9.48-21.4-9.48-39s3.34-30.72 10-39.82 16.52-13.59 29.41-13.59zm-.77 17.45a10.6 10.6 0 0 0-10 6q-3.21 6-4 19.82h26.93q0-13.48-3.13-19.58c-2.1-4.06-5.34-6.16-9.77-6.16zm-82.29-17.45q17.83 0 26.84 12.32t9 36.41v9.67h-50.83c.25 19.22 5.18 28.82 14.6 28.82 3.8 0 6.63-1.16 8.53-3.5s3.17-6.29 3.8-11.86h23.52q-1.53 16.31-10.71 24.75t-25.51 8.44q-19.71 0-29.2-12.67c-6.32-8.47-9.48-21.4-9.48-39s3.34-30.72 10-39.82 16.51-13.65 29.4-13.65zm-.77 17.45a10.6 10.6 0 0 0-10 6q-3.21 6-4 19.82h26.93q0-13.48-3.13-19.58c-2.1-4.06-5.34-6.16-9.77-6.16zM256 362.91v135.41h26.75v-55h42v-23.9h-42V386.8h45.13v-23.89zm78.9 135.2v-99.05h24.27v13.28a31.84 31.84 0 0 1 9.48-11.1 19.82 19.82 0 0 1 11.52-3.89 28 28 0 0 1 6.82 1l-2.84 22.76a29.76 29.76 0 0 0-7.4-.76 15.84 15.84 0 0 0-12 5.13 17.82 17.82 0 0 0-4.84 12.7v59.93h-25zm229.28 0V386.6h-30.73v-23.9h88.2v23.9h-30.74v111.52zm177.33 0-16.31-32.62-15.55 32.62H685l27.87-50.26-26.17-48.74h26.49l14.22 30 14.6-30h24.66l-26.93 47.42L768 498.11zm-224.18 24.36H485.9l-37.55 135.41h26.17l7.39-30.72h37.93l7 30.72h27.07zM487 605.11l14-59 13.65 59zm-166.34-82.64h26.74v86.86q0 25.22-11.75 38.6t-34 13.37q-22.19 0-34-13.37T256 609.33v-86.86h26.74v88.76q0 13.28 4.65 19.72c3.09 4.28 7.87 6.45 14.32 6.45s11.21-2.15 14.29-6.4 4.65-10.87 4.65-19.72v-88.81zm69.79 75.67q-16.11-4.73-23.7-14.32t-7.59-25.13q0-18 11.76-28.82T402 519.06q18.4 0 28.64 9.29T443.55 557l-25.42 3.42q-1.9-10.63-5.68-15.09t-11.19-4.46q-7.39 0-11.39 4.26c-2.66 2.84-4 7-4 12.67q0 7 3 10.91t10.44 6.16l14.41 4.61q11.56 3.61 18.58 9a32.36 32.36 0 0 1 10.25 13.19c2.17 5.18 3.22 11.39 3.22 18.59q0 19-11.66 30.06c-7.77 7.39-18.31 11-31.71 11-28.2 0-43.19-14.67-45.15-44h26.56c.58 7.72 2.43 13.34 5.4 16.87s7.49 5.31 13.56 5.31c5.18 0 9.2-1.55 12.09-4.65s4.26-7.56 4.26-13.37c0-5.18-1.17-9.29-3.46-12.32s-6-5.3-11.09-6.82l-14-4.17zm177 4.43h200.58V578h-207.6zm-15.66-54.75H768v-24.59H544.78zm24.78 86.88 7 24.59H768V634.7z" style="fill:#fff"/>
</svg>
